packages/icons/src/lock-closed.svg

<svg width="15" height="15" viewBox="0 0 15 15" fill="none" xmlns="http://www.w3.org/2000/svg">
  <path
    fill-rule="evenodd"
    clip-rule="evenodd"
    d="M5 4.63601C5 3.76031 5.24219 3.1054 5.64323 2.67357C6.03934 2.24705 6.64582 1.9783 7.5014 1.9783C8.35745 1.9783 8.96306 2.24652 9.35823 2.67208C9.75838 3.10299 10 3.75708 10 4.63325V5.99999H5V4.63601ZM4 5.99999V4.63601C4 3.58148 4.29339 2.65754 4.91049 1.99307C5.53252 1.32329 6.42675 0.978302 7.5014 0.978302C8.57583 0.978302 9.46952 1.32233 10.091 1.99162C10.7076 2.65557 11 3.57896 11 4.63325V5.99999H12C12.5523 5.99999 13 6.44771 13 6.99999V13C13 13.5523 12.5523 14 12 14H3C2.44772 14 2 13.5523 2 13V6.99999C2 6.44771 2.44772 5.99999 3 5.99999H4ZM3 6.99999H12V13H3V6.99999Z"
    fill="currentColor"
  />
</svg>

<svg xmlns="http://www.w3.org/2000/svg" width="15" height="15" fill="none"><path fill="currentColor" fill-rule="evenodd" d="M5 4.636c0-.876.242-1.53.643-1.962.396-.427 1.003-.696 1.858-.696s1.462.269 1.857.694c.4.431.642 1.085.642 1.961V6H5zM4 6V4.636c0-1.055.293-1.978.91-2.643.623-.67 1.517-1.015 2.591-1.015s1.969.344 2.59 1.014c.617.664.909 1.587.909 2.641V6h1a1 1 0 0 1 1 1v6a1 1 0 0 1-1 1H3a1 1 0 0 1-1-1V7a1 1 0 0 1 1-1zM3 7h9v6H3z" clip-rule="evenodd"/></svg>
